packages/sources/icons/src/vitamix/volume-mute-line.svg

<svg width="16" height="16" viewBox="0 0 16 16" fill="none" xmlns="http://www.w3.org/2000/svg">
<path fill-rule="evenodd" clip-rule="evenodd" d="M3.92601 10.6667H1.33334C0.965149 10.6667 0.666672 10.3682 0.666672 9.99999V5.99999C0.666672 5.6318 0.965149 5.33333 1.33334 5.33333H3.92601L7.45534 2.44533C7.55502 2.36361 7.69288 2.34668 7.80937 2.40186C7.92586 2.45704 8.00009 2.57443 8.00001 2.70333V13.2967C8.00009 13.4256 7.92586 13.5429 7.80937 13.5981C7.69288 13.6533 7.55502 13.6364 7.45534 13.5547L3.92667 10.6667H3.92601ZM6.66667 4.81334L4.402 6.66668H2.00001V9.33334H4.402L6.66667 11.1867V4.81334ZM15.9667 10.3573L13.6093 7.99999L15.9667 5.64265L15.024 4.69999L12.6667 7.05732L10.3093 4.69999L9.36666 5.64265L11.724 7.99999L9.36666 10.3573L10.3093 11.3L12.6667 8.94265L15.024 11.3L15.9667 10.3573Z" fill="#001018"/>
</svg>

<svg width="16" height="16" fill="none" xmlns="http://www.w3.org/2000/svg"><path fill-rule="evenodd" clip-rule="evenodd" d="M3.926 10.667H1.333A.667.667 0 0 1 .667 10V6c0-.368.298-.667.666-.667h2.593l3.53-2.888A.333.333 0 0 1 8 2.703v10.594a.333.333 0 0 1-.545.258l-3.528-2.888h-.001zm2.74-5.854L4.403 6.667H2v2.666h2.402l2.265 1.854V4.813zm9.3 5.544L13.61 8l2.358-2.357-.943-.943-2.357 2.357L10.309 4.7l-.942.943L11.724 8l-2.357 2.357.942.943 2.358-2.357 2.357 2.357.943-.943z" fill="#001018"/></svg>
